X:145595
T:145595
M:4/4
K:Cmin
|GccBcdec|dcBdfdcB|GccBcdec|1dfBdc2cB:||2dfBdc2cd|:e2(3fedegfe|dBfBgBfd|edcdefg=a|bgfdc2:|c'cgcc'cgc|dcBdfdcB|1c'cgcc'cgc|dcBcdcc2:||2cdedefga|bgfdc2cd:|

